svg/fluentui-system-icons/ic_fluent_split_vertical_32_filled.svg

<svg width="32" height="32" viewBox="0 0 32 32" fill="none" xmlns="http://www.w3.org/2000/svg">
<path d="M15 29C15 29.5523 15.4477 30 16 30C16.5523 30 17 29.5523 17 29L17 3C17 2.44772 16.5523 2 16 2C15.4477 2 15 2.44772 15 3L15 29ZM26.5 26H18.5V6H26.5C28.433 6 30 7.567 30 9.5V22.5C30 24.433 28.433 26 26.5 26ZM13.5 6H5.5C3.567 6 2 7.567 2 9.5V22.5C2 24.433 3.567 26 5.5 26H13.5V6Z" fill="#212121"/>
</svg>

<svg xmlns="http://www.w3.org/2000/svg" width="32" height="32"><path d="M15 29a1 1 0 1 0 2 0V3a1 1 0 1 0-2 0v26Zm11.5-3h-8V6h8A3.5 3.5 0 0 1 30 9.5v13a3.5 3.5 0 0 1-3.5 3.5Zm-13-20h-8A3.5 3.5 0 0 0 2 9.5v13A3.5 3.5 0 0 0 5.5 26h8V6Z"/></svg>
